img/check.svg

<svg width="24" height="24" viewBox="0 0 24 24" fill="none" xmlns="http://www.w3.org/2000/svg">
<path fill-rule="evenodd" clip-rule="evenodd" d="M20.5342 6.62464C20.8271 6.92363 20.8271 7.4084 20.5342 7.70739L10.5342 17.9157C10.2413 18.2147 9.76647 18.2147 9.47358 17.9157L4.47358 12.8116C4.18068 12.5126 4.18068 12.0278 4.47358 11.7288C4.76647 11.4298 5.24134 11.4298 5.53424 11.7288L10.0039 16.2916L19.4736 6.62464C19.7665 6.32564 20.2413 6.32564 20.5342 6.62464Z" fill="#46DA2E"/>
</svg>

<svg width="24" height="24" fill="none" xmlns="http://www.w3.org/2000/svg"><path fill-rule="evenodd" clip-rule="evenodd" d="M20.534 6.625a.777.777 0 0 1 0 1.082l-10 10.209a.74.74 0 0 1-1.06 0l-5-5.104a.777.777 0 0 1 0-1.083.74.74 0 0 1 1.06 0l4.47 4.563 9.47-9.667a.74.74 0 0 1 1.06 0Z" fill="#46DA2E"/></svg>
